X:17377
T:Thema. CJF.157
M:2/4
L:1/16
Q:80
S: C.J.Fox MS, 1829/33, Beverley,E.Yorks.
O:England
A:East Yorkshire
B:Kidson Coll.Mitchell Lib.M1805
N:Each of the beamed groups of grace notes are intrespersed into beamed
N:notes in the MS. I have added the rest marked * to make the tune scan.
N:Attributed to "Pleyel" on the title line. - PJH.
Z:P J Headford 2000
K:G
"Andante non troppo"g3(f/e/) d2d2|(d3c)A4|(B>G)(c>A) (D>B)(e>g)|\
(g2{agfg}a2 f2z2|(g3f/e/) d2d2|(d3c)A4|(B>d)(e>a) g2f2|(a4g2)"*"z2:||:!
a7/2f d2c2|B3{cBAB}c d2^d2|e4e{fed}efg|(g4f2)z2|g3(f/e/) d2d2|\
d^dec A3c|(B>d)(e>a) g2f2|{f}a4g2z2:||
